assets/icons/app-store.svg

<svg width="150" height="50" viewBox="0 0 150 50" fill="none" xmlns="http://www.w3.org/2000/svg">
<path fill-rule="evenodd" clip-rule="evenodd" d="M138.734 0L139.414 0.00250244C139.795 0.00500244 140.188 0.0124878 140.57 0.0187378C141.41 0.0387378 142.251 0.0899892 143.077 0.23999C143.917 0.38624 144.698 0.636241 145.469 1.02374C146.217 1.40625 146.903 1.90502 147.495 2.49628C148.093 3.08878 148.59 3.77502 148.977 4.52252C149.361 5.28378 149.61 6.06502 149.753 6.90253C149.907 7.73003 149.956 8.56752 149.985 9.40503C149.99 9.78753 149.99 10.1726 149.99 10.5551L150 11.2361V38.0815C150 38.5427 150 38.994 149.99 39.449C149.99 39.8365 149.99 40.2127 149.985 40.6015C149.956 41.439 149.907 42.2752 149.753 43.104C149.61 43.9403 149.361 44.7253 148.977 45.484C148.59 46.229 148.093 46.914 147.495 47.5015C146.903 48.099 146.217 48.5953 145.469 48.9753C144.698 49.3653 143.917 49.6128 143.077 49.764C142.251 49.9128 141.41 49.9616 140.57 49.9841L139.991 49.9942L138.734 50H11.2655L10.5796 49.9978C10.196 49.9978 9.81494 49.9928 9.42761 49.9841C8.59277 49.9616 7.7492 49.9128 6.91687 49.764C6.07702 49.6128 5.29735 49.3653 4.53271 48.9753C3.78311 48.5953 3.09743 48.099 2.50452 47.5015C1.90534 46.914 1.40768 46.229 1.02661 45.484C0.638031 44.7253 0.391084 43.9403 0.243164 43.104C0.0927441 42.2752 0.0400695 41.439 0.0200195 40.6015L0.00769043 40.0248L0 39.449V10.5551C0.00627 10.1726 0.00747953 9.78753 0.0200195 9.40503C0.0400695 8.56752 0.0927441 7.73003 0.243164 6.90253C0.391084 6.06502 0.638031 5.28378 1.02661 4.52252C1.40768 3.77502 1.90534 3.08878 2.50452 2.49628C3.09743 1.90502 3.78311 1.40625 4.53271 1.02374C5.29735 0.636241 6.07702 0.38624 6.91687 0.23999C7.7492 0.0899892 8.59277 0.0387378 9.42761 0.0187378C9.81494 0.0124878 10.196 0.00500244 10.5796 0.00250244L11.9523 0H138.734ZM139.408 1.09375H10.5859L9.4552 1.10876L8.93164 1.12708C8.37667 1.15204 7.73757 1.20128 7.10486 1.31378C6.35401 1.44503 5.67589 1.66749 5.03284 1.995C4.38227 2.32625 3.79187 2.75374 3.27417 3.27124C2.76148 3.77749 2.33401 4.36377 2.00183 5.02002C1.67717 5.65377 1.45404 6.33128 1.32117 7.09753C1.19116 7.81111 1.14317 8.53939 1.12183 9.14539L1.09436 10.5551V39.4884L1.11316 40.5728L1.13123 41.0949C1.15656 41.6483 1.20782 42.2856 1.32251 42.9165C1.45538 43.6803 1.67714 44.3578 2.00305 44.9878C2.33523 45.6428 2.76279 46.2266 3.28174 46.7341C3.79066 47.2466 4.37851 47.674 5.03284 48.004C5.66461 48.3265 6.34522 48.5515 7.10986 48.689C7.91963 48.8353 8.75079 48.8741 9.45276 48.8928L10.0183 48.903L10.5859 48.9066L138.055 48.9091L139.414 48.9066C139.788 48.9066 140.171 48.9016 140.538 48.8928C141.248 48.8741 142.079 48.8353 142.881 48.689C143.659 48.5503 144.323 48.3316 144.972 48.0028C145.621 47.6728 146.209 47.2466 146.727 46.7241C147.232 46.2291 147.662 45.6415 147.999 44.9915C148.327 44.349 148.547 43.6715 148.676 42.904C148.82 42.1327 148.866 41.324 148.891 40.5878L148.894 40.2061L148.896 39.4252L148.905 38.7562V11.4703C148.905 11.1701 148.902 10.8676 148.896 10.5551L148.895 9.80524C148.894 9.68255 148.893 9.5617 148.892 9.44379C148.866 8.68128 148.82 7.87256 148.674 7.0838C148.547 6.33755 148.327 5.66128 148.003 5.02252C147.663 4.36502 147.234 3.77505 146.721 3.2663C146.208 2.75379 145.619 2.32625 144.976 1.9975C144.32 1.66875 143.637 1.44503 142.881 1.31378C142.258 1.20128 141.621 1.15206 141.071 1.12762L140.552 1.10999L139.408 1.09375ZM64.364 26.6851C67.2446 26.6851 69.1423 28.9551 69.1423 32.4626C69.1423 35.9789 67.2546 38.2389 64.4066 38.2389C62.7896 38.2389 61.5047 37.5176 60.8353 36.2589H60.7815V41.8639H58.4524V26.8038H60.7075V28.6863H60.7501C61.3969 27.4713 62.7783 26.6851 64.364 26.6851ZM76.855 26.6851C79.7355 26.6851 81.6345 28.9551 81.6345 32.4626C81.6345 35.9789 79.7456 38.2389 76.8976 38.2389C75.2806 38.2389 73.9957 37.5176 73.3263 36.2589H73.2725V41.8639H70.9434V26.8038H73.1985V28.6863H73.2411C73.8879 27.4713 75.2693 26.6851 76.855 26.6851ZM93.5769 22.3393C96.8674 22.3393 99.1224 24.1793 99.1989 26.8568H96.8473C96.7056 25.3081 95.422 24.373 93.5455 24.373C91.669 24.373 90.3855 25.3193 90.3855 26.6956C90.3855 27.7931 91.2052 28.4393 93.2108 28.933L94.9269 29.3531C98.1196 30.1068 99.4458 31.3856 99.4458 33.6569C99.4458 36.5606 97.1268 38.3794 93.4377 38.3794C89.9856 38.3794 87.6553 36.6031 87.5049 33.7956H89.889C90.062 35.3344 91.5612 36.3456 93.6107 36.3456C95.5737 36.3456 96.9865 35.3343 96.9865 33.9468C96.9865 32.7418 96.1341 32.0205 94.1172 31.5268L92.1002 31.0418C89.241 30.3531 87.9148 29.0206 87.9148 26.8568C87.9148 24.1793 90.2551 22.3393 93.5769 22.3393ZM132.129 26.6639C135.269 26.6639 137.244 28.8152 137.244 32.2465V33.0427H129.227V33.1827C129.227 35.1189 130.447 36.389 132.281 36.389C133.575 36.389 134.59 35.7752 134.902 34.7964H137.113C136.8 36.8515 134.794 38.2615 132.227 38.2615C128.925 38.2615 126.876 36.0553 126.876 32.5165C126.876 28.9665 128.937 26.6639 132.129 26.6639ZM113.266 26.6638C116.556 26.6638 118.649 28.9013 118.649 32.4626C118.649 36.0326 116.566 38.2614 113.266 38.2614C109.965 38.2614 107.883 36.0326 107.883 32.4626C107.883 28.9013 109.985 26.6638 113.266 26.6638ZM104.476 24.1251V26.8039H106.634V28.6427H104.476V34.8815C104.476 35.8515 104.908 36.3027 105.857 36.3027L106.128 36.2935L106.41 36.2723L106.623 36.249V38.0778C106.494 38.1103 106.3 38.1371 106.074 38.1559L105.714 38.1776C105.588 38.1826 105.459 38.1852 105.33 38.1852C103.032 38.1852 102.136 37.3253 102.136 35.1302V28.6427H100.485V26.8039H102.136V24.1251H104.476ZM125.575 26.6847C125.909 26.6847 126.189 26.7284 126.373 26.7722V28.9447C126.189 28.8685 125.779 28.8047 125.327 28.8047C123.827 28.8047 122.898 29.8159 122.898 31.4084V38.121H120.569V26.8034H122.791V28.7297H122.845C123.202 27.4497 124.237 26.6847 125.575 26.6847ZM51.3859 22.5977L57.0054 38.1202H54.4495L53.0255 33.9252H47.0927L45.6674 38.1202H43.1541L48.7748 22.5977H51.3859ZM23.7766 17.9661C24.0805 17.9661 24.4595 17.8519 24.8944 17.6905L26.0869 17.2272C27.0307 16.872 28.1087 16.5455 29.203 16.6599L29.4005 16.6693L29.6361 16.6893C29.6783 16.6937 29.7218 16.6987 29.7667 16.7042L30.0514 16.7456C31.2478 16.9449 33.1036 17.5729 34.405 19.4648L34.3071 19.5253L34.1008 19.6638L33.915 19.8C33.8813 19.8257 33.8464 19.8528 33.8103 19.8813L33.5817 20.0706C32.6631 20.8642 31.3119 22.4432 31.334 24.8624C31.3577 27.6543 32.9445 29.2282 34.0612 29.9907L34.2925 30.1418L34.505 30.2689L34.6942 30.373L34.9247 30.4879L35.1384 30.58L35.1125 30.6734L35.0474 30.8806L34.9406 31.1879L34.8452 31.442L34.7299 31.7307L34.5938 32.0501L34.4362 32.3962L34.2567 32.7651C33.9706 33.3334 33.6079 33.9651 33.1591 34.6L32.7523 35.1981L32.4756 35.5876C31.4968 36.9316 30.3983 38.0445 28.832 38.0687C28.0989 38.0862 27.5549 37.923 27.0367 37.717L26.3718 37.4393C25.7707 37.1909 25.1118 36.9637 24.1514 36.9637C23.1809 36.9637 22.5082 37.1761 21.9017 37.4186L21.2351 37.6946C20.7193 37.9042 20.1876 38.0845 19.4846 38.1137C18.116 38.1637 16.9859 37.1205 16.0009 35.876L15.7096 35.4976L15.2877 34.9189L15.0157 34.5337C12.6015 31.0162 10.7213 24.6199 13.2421 20.2661C14.4642 18.1323 16.6917 16.7586 19.0734 16.7198C19.9978 16.7011 20.8891 17.0127 21.6915 17.3289L22.2758 17.5619C22.8416 17.7856 23.3498 17.9661 23.7766 17.9661ZM113.266 28.5788C111.378 28.5788 110.255 30.0313 110.255 32.4626C110.255 34.9151 111.378 36.3451 113.266 36.3451C115.152 36.3451 116.275 34.9151 116.275 32.4626C116.275 30.0201 115.152 28.5788 113.266 28.5788ZM63.7485 28.665C61.9685 28.665 60.7714 30.2026 60.7714 32.4626C60.7714 34.7426 61.9685 36.2701 63.7485 36.2701C65.5611 36.2701 66.7482 34.7751 66.7482 32.4626C66.7482 30.1713 65.5611 28.665 63.7485 28.665ZM76.2395 28.665C74.4595 28.665 73.2623 30.2026 73.2623 32.4626C73.2623 34.7426 74.4595 36.2701 76.2395 36.2701C78.0521 36.2701 79.2391 34.7751 79.2391 32.4626C79.2391 30.1713 78.0521 28.665 76.2395 28.665ZM50.0909 25.1802H50.0271L47.7068 31.989H52.41L50.0909 25.1802ZM132.129 28.5464C130.521 28.5464 129.358 29.7089 129.239 31.4189H134.912C134.858 29.6864 133.748 28.5464 132.129 28.5464ZM128.869 12.6343C130.44 12.6343 131.387 13.7056 131.387 15.4731V15.8594H127.401V15.9231C127.438 16.9094 128.013 17.5344 128.904 17.5344C129.579 17.5344 130.04 17.2931 130.248 16.8531H131.32C131.067 17.8618 130.164 18.4819 128.874 18.4819C127.257 18.4819 126.267 17.3756 126.267 15.5768C126.267 13.7768 127.277 12.6343 128.869 12.6343ZM79.4009 12.6345C81.0455 12.6345 82.062 13.7407 82.062 15.5557C82.062 17.3807 81.0492 18.482 79.4009 18.482C77.7488 18.482 76.7371 17.3807 76.7371 15.5557C76.7371 13.7407 77.7538 12.6345 79.4009 12.6345ZM101.98 12.6345C103.625 12.6345 104.64 13.7407 104.64 15.5557C104.64 17.3807 103.628 18.482 101.98 18.482C100.328 18.482 99.3162 17.3807 99.3162 15.5557C99.3162 13.7407 100.333 12.6345 101.98 12.6345ZM54.9108 12.6345C56.5554 12.6345 57.5707 13.7407 57.5707 15.5557C57.5707 17.3807 56.5591 18.482 54.9108 18.482C53.2586 18.482 52.2471 17.3807 52.2471 15.5557C52.2471 13.7407 53.2637 12.6345 54.9108 12.6345ZM85.7588 12.6342C87.174 12.6342 87.9724 13.338 87.9724 14.5267V18.3718H86.8994V17.5805H86.8116C86.4744 18.1455 85.8578 18.4642 85.1157 18.4642C84.0277 18.4642 83.2341 17.8092 83.2341 16.7805C83.2341 15.7667 83.9914 15.183 85.3339 15.1005L86.863 15.0129V14.5267C86.863 13.9317 86.4695 13.5967 85.7074 13.5967C85.0856 13.5967 84.6545 13.8242 84.5316 14.2217H83.4523C83.5663 13.2542 84.479 12.6342 85.7588 12.6342ZM94.7072 10.5469V18.372H93.6404V17.4832H93.5514C93.2155 18.0982 92.5561 18.4645 91.7789 18.4645C90.3437 18.4645 89.4362 17.3395 89.4362 15.5557C89.4362 13.777 90.3524 12.6507 91.7789 12.6507C92.5511 12.6507 93.2043 13.0182 93.5101 13.6382H93.5928V10.5469H94.7072ZM117.223 11.3431V12.7693H118.446V13.7056H117.223V16.5994C117.223 17.1894 117.466 17.4468 118.021 17.4468C118.192 17.4468 118.291 17.4369 118.446 17.4219V18.3481C118.264 18.3769 118.056 18.4031 117.839 18.4031C116.601 18.4031 116.107 17.9693 116.107 16.8843V13.7056H115.212V12.7693H116.107V11.3431H117.223ZM47.416 10.9135C49.6335 10.9135 50.9346 12.2734 50.9346 14.6197C50.9346 17.0022 49.6435 18.3723 47.416 18.3723H44.7135V10.9135H47.416ZM75.1895 10.5478V18.3729H74.0751V10.5478H75.1895ZM121.072 10.5472V13.6472H121.159C121.434 13.0185 122.031 12.6397 122.88 12.6397C124.083 12.6397 124.825 13.3997 124.825 14.7397V18.3723H123.709V15.0122C123.709 14.1147 123.289 13.6572 122.502 13.6572C121.589 13.6572 121.082 14.2322 121.082 15.086V18.3723H119.967V10.5472H121.072ZM108.975 12.6345C110.235 12.6345 110.928 13.3895 110.928 14.7295V18.372H109.815V15.0082C109.815 14.1032 109.42 13.6532 108.596 13.6532C107.773 13.6532 107.249 14.202 107.249 15.0795V18.372H106.135V12.7444H107.206V13.6382H107.29C107.565 13.0132 108.125 12.6345 108.975 12.6345ZM59.5044 12.7444L60.516 17.0395H60.6L61.7594 12.7444H62.8286L63.9894 17.0395H64.0771L65.0837 12.7444H66.1969L64.6475 18.372H63.4918L62.3247 14.227H62.2371L61.075 18.372H59.9305L58.375 12.7444H59.5044ZM70.3463 12.6345C71.6061 12.6345 72.2993 13.3895 72.2993 14.7295V18.372H71.1862V15.0082C71.1862 14.1032 70.7913 13.6532 69.9678 13.6532C69.1442 13.6532 68.6202 14.202 68.6202 15.0795V18.372H67.5059V12.7444H68.5776V13.6382H68.6616C68.9361 13.0132 69.4964 12.6345 70.3463 12.6345ZM86.863 15.8292L85.4843 15.9167C84.7071 15.9692 84.3549 16.233 84.3549 16.7292C84.3549 17.2355 84.796 17.5292 85.4015 17.5292C86.2413 17.5292 86.863 16.998 86.863 16.2993V15.8292ZM101.98 13.6219C101.012 13.6219 100.467 14.3357 100.467 15.5557C100.467 16.7845 101.012 17.4932 101.98 17.4932C102.945 17.4932 103.494 16.7795 103.494 15.5557C103.494 14.3357 102.945 13.6219 101.98 13.6219ZM79.4009 13.6219C78.4332 13.6219 77.8878 14.3357 77.8878 15.5557C77.8878 16.7845 78.4332 17.4932 79.4009 17.4932C80.3661 17.4932 80.915 16.7795 80.915 15.5557C80.915 14.3357 80.3661 13.6219 79.4009 13.6219ZM54.9108 13.6219C53.9431 13.6219 53.3977 14.3357 53.3977 15.5557C53.3977 16.7845 53.9431 17.4932 54.9108 17.4932C55.876 17.4932 56.425 16.7795 56.425 15.5557C56.425 14.3357 55.876 13.6219 54.9108 13.6219ZM92.0948 13.6482C91.1572 13.6482 90.5869 14.372 90.5869 15.5557C90.5869 16.7495 91.1509 17.4683 92.0948 17.4683C93.0337 17.4683 93.6141 16.7382 93.6141 15.5607C93.6141 14.387 93.0275 13.6482 92.0948 13.6482ZM47.2856 11.9684H45.8755V17.3173H47.2856C48.85 17.3173 49.7526 16.346 49.7526 14.6347C49.7526 12.9497 48.835 11.9684 47.2856 11.9684ZM29.2258 9.80853C29.4114 11.4835 28.7444 13.1336 27.7729 14.3461C26.7576 15.5398 25.1356 16.4536 23.5537 16.3361C23.3469 14.7249 24.1478 13.0123 25.0441 11.9661C26.0582 10.7786 27.8181 9.87103 29.2258 9.80853ZM128.863 13.5806C128.039 13.5806 127.464 14.1606 127.401 15.0394H130.252C130.227 14.1556 129.688 13.5806 128.863 13.5806Z" fill="#504C5C"/>
</svg>

<svg width="150" height="50" fill="none" xmlns="http://www.w3.org/2000/svg"><path fill-rule="evenodd" clip-rule="evenodd" d="m138.734 0 .68.003c.381.002.774.01 1.156.016.84.02 1.681.071 2.507.221a8.47 8.47 0 0 1 2.392.784 8.073 8.073 0 0 1 2.026 1.472 8.073 8.073 0 0 1 1.482 2.027c.384.76.633 1.542.776 2.38.154.827.203 1.665.232 2.502.005.383.005.768.005 1.15l.01.681v26.845c0 .462 0 .913-.01 1.368 0 .388 0 .764-.005 1.153-.029.837-.078 1.673-.232 2.502a8.298 8.298 0 0 1-.776 2.38 7.983 7.983 0 0 1-1.482 2.017 7.867 7.867 0 0 1-2.026 1.474 8.56 8.56 0 0 1-2.392.789c-.826.149-1.667.198-2.507.22l-.579.01-1.257.006H11.265l-.685-.002c-.384 0-.765-.005-1.152-.014-.835-.022-1.679-.071-2.511-.22a8.444 8.444 0 0 1-2.384-.789 7.866 7.866 0 0 1-2.028-1.474 7.8 7.8 0 0 1-1.478-2.017 8.324 8.324 0 0 1-.784-2.38c-.15-.829-.203-1.665-.223-2.502l-.012-.577L0 39.449V10.555c.006-.382.007-.767.02-1.15.02-.837.073-1.675.223-2.502a8.338 8.338 0 0 1 .784-2.38 8.072 8.072 0 0 1 3.506-3.499A8.357 8.357 0 0 1 6.917.24C7.749.09 8.593.039 9.427.019c.388-.007.769-.014 1.153-.016L11.952 0h126.782zm.674 1.094H10.586l-1.13.015-.524.018c-.555.025-1.194.074-1.827.187a7.244 7.244 0 0 0-2.072.681 6.922 6.922 0 0 0-1.759 1.276A6.7 6.7 0 0 0 2.002 5.02a7.166 7.166 0 0 0-.68 2.078 14.43 14.43 0 0 0-.2 2.047l-.028 1.41v28.933l.02 1.085.017.522c.026.553.077 1.19.192 1.822.132.763.354 1.44.68 2.07a6.61 6.61 0 0 0 1.279 1.747c.509.513 1.097.94 1.75 1.27a7.374 7.374 0 0 0 2.078.685c.81.146 1.64.185 2.343.204l.565.01.568.004 127.469.002 1.359-.002c.374 0 .757-.005 1.124-.014.71-.019 1.541-.058 2.343-.204a7.348 7.348 0 0 0 2.091-.686 6.797 6.797 0 0 0 1.755-1.279 6.822 6.822 0 0 0 1.272-1.732c.328-.643.548-1.32.677-2.088.144-.771.19-1.58.215-2.316l.003-.382.002-.78.009-.67V11.47c0-.3-.003-.602-.009-.915l-.001-.75-.003-.361c-.026-.763-.072-1.571-.218-2.36a7.14 7.14 0 0 0-.671-2.061 6.972 6.972 0 0 0-3.027-3.025 7.44 7.44 0 0 0-2.095-.684 13.772 13.772 0 0 0-1.81-.186l-.519-.018-1.144-.016zM64.364 26.685c2.88 0 4.778 2.27 4.778 5.778 0 3.516-1.887 5.776-4.735 5.776-1.617 0-2.902-.721-3.572-1.98h-.053v5.605h-2.33v-15.06h2.256v1.882h.042c.647-1.215 2.028-2 3.614-2zm12.491 0c2.88 0 4.78 2.27 4.78 5.778 0 3.516-1.89 5.776-4.737 5.776-1.617 0-2.902-.721-3.572-1.98h-.053v5.605h-2.33v-15.06h2.255v1.882h.043c.647-1.215 2.028-2 3.614-2zm16.722-4.346c3.29 0 5.545 1.84 5.622 4.518h-2.352c-.141-1.549-1.425-2.484-3.301-2.484-1.877 0-3.16.946-3.16 2.323 0 1.097.82 1.743 2.825 2.237l1.716.42c3.193.754 4.519 2.033 4.519 4.304 0 2.904-2.32 4.722-6.008 4.722-3.452 0-5.783-1.776-5.933-4.583h2.384c.173 1.538 1.672 2.55 3.722 2.55 1.963 0 3.376-1.012 3.376-2.4 0-1.204-.853-1.925-2.87-2.42l-2.017-.484c-2.859-.689-4.185-2.021-4.185-4.185 0-2.678 2.34-4.518 5.662-4.518zm38.552 4.325c3.14 0 5.115 2.151 5.115 5.582v.797h-8.017v.14c0 1.936 1.22 3.206 3.054 3.206 1.294 0 2.309-.614 2.621-1.593h2.211c-.313 2.056-2.319 3.465-4.886 3.465-3.302 0-5.351-2.206-5.351-5.745 0-3.55 2.061-5.852 5.253-5.852zm-18.863 0c3.29 0 5.383 2.237 5.383 5.799 0 3.57-2.083 5.798-5.383 5.798-3.301 0-5.383-2.228-5.383-5.798 0-3.562 2.102-5.8 5.383-5.8zm-8.79-2.539v2.679h2.158v1.839h-2.158v6.239c0 .97.432 1.42 1.381 1.42l.271-.008.282-.022.213-.023v1.829a3.71 3.71 0 0 1-.549.078l-.36.022a9.721 9.721 0 0 1-.384.007c-2.298 0-3.194-.86-3.194-3.055v-6.487h-1.651v-1.84h1.651v-2.678h2.34zm21.099 2.56c.334 0 .614.043.798.087v2.173c-.184-.076-.594-.14-1.046-.14-1.5 0-2.429 1.01-2.429 2.603v6.713h-2.329V26.803h2.222v1.927h.054c.357-1.28 1.392-2.045 2.73-2.045zm-74.19-4.087 5.62 15.522H54.45l-1.423-4.195h-5.933l-1.426 4.195h-2.513l5.62-15.522h2.612zm-27.608-4.632c.303 0 .682-.114 1.117-.276l1.193-.463c.944-.355 2.022-.681 3.116-.567l.198.01.235.02.13.014.285.042c1.197.199 3.053.827 4.354 2.719l-.098.06-.206.139-.186.136a7.916 7.916 0 0 0-.105.081l-.228.19c-.919.793-2.27 2.372-2.248 4.791.024 2.792 1.61 4.366 2.727 5.129l.231.15.213.128.19.104.23.115.213.092-.026.093-.065.208-.106.307-.096.254-.115.289-.136.32-.158.345-.18.37c-.285.567-.648 1.2-1.097 1.834l-.407.598-.276.39c-.98 1.344-2.078 2.456-3.644 2.48-.733.018-1.277-.145-1.795-.351l-.665-.278c-.601-.248-1.26-.475-2.22-.475-.971 0-1.644.212-2.25.455l-.667.276c-.516.21-1.047.39-1.75.419-1.369.05-2.5-.993-3.484-2.238l-.291-.378-.422-.58-.272-.384c-2.415-3.518-4.295-9.914-1.774-14.268 1.222-2.134 3.45-3.507 5.831-3.546.925-.019 1.816.293 2.619.609l.584.233c.566.224 1.074.404 1.5.404zm89.489 10.613c-1.888 0-3.011 1.452-3.011 3.884 0 2.452 1.123 3.882 3.011 3.882 1.886 0 3.009-1.43 3.009-3.882 0-2.443-1.123-3.884-3.009-3.884zm-49.518.086c-1.78 0-2.977 1.538-2.977 3.798 0 2.28 1.197 3.807 2.977 3.807 1.813 0 3-1.495 3-3.807 0-2.292-1.187-3.798-3-3.798zm12.492 0c-1.78 0-2.978 1.538-2.978 3.798 0 2.28 1.198 3.807 2.978 3.807 1.812 0 3-1.495 3-3.807 0-2.292-1.188-3.798-3-3.798zM50.09 25.18h-.063l-2.32 6.809h4.703l-2.32-6.809zm82.039 3.366c-1.608 0-2.771 1.163-2.89 2.873h5.673c-.054-1.733-1.164-2.873-2.783-2.873zm-3.26-15.912c1.571 0 2.518 1.072 2.518 2.84v.385h-3.986v.064c.037.986.612 1.611 1.503 1.611.675 0 1.136-.24 1.344-.68h1.072c-.253 1.008-1.156 1.628-2.446 1.628-1.617 0-2.607-1.106-2.607-2.905 0-1.8 1.01-2.943 2.602-2.943zm-49.468 0c1.645 0 2.661 1.107 2.661 2.922 0 1.825-1.013 2.926-2.661 2.926-1.652 0-2.664-1.101-2.664-2.926 0-1.815 1.017-2.921 2.664-2.921zm22.579 0c1.645 0 2.66 1.107 2.66 2.922 0 1.825-1.012 2.926-2.66 2.926-1.652 0-2.664-1.101-2.664-2.926 0-1.815 1.017-2.921 2.664-2.921zm-47.07 0c1.645 0 2.66 1.107 2.66 2.922 0 1.825-1.01 2.926-2.66 2.926-1.651 0-2.663-1.101-2.663-2.926 0-1.815 1.017-2.921 2.664-2.921zm30.849 0c1.415 0 2.213.704 2.213 1.893v3.845H86.9v-.791h-.087c-.338.564-.954.883-1.696.883-1.088 0-1.882-.655-1.882-1.683 0-1.014.757-1.598 2.1-1.68l1.529-.088v-.486c0-.595-.394-.93-1.156-.93-.621 0-1.052.227-1.175.625h-1.08c.114-.968 1.027-1.588 2.307-1.588zm8.948-2.087v7.825H93.64v-.889h-.089c-.335.615-.995.982-1.772.982-1.435 0-2.343-1.125-2.343-2.91 0-1.778.916-2.904 2.343-2.904.772 0 1.425.367 1.731.987h.083v-3.091h1.114zm22.516.796v1.426h1.223v.937h-1.223v2.893c0 .59.243.848.798.848.171 0 .27-.01.425-.025v.926c-.182.029-.39.055-.607.055-1.238 0-1.732-.434-1.732-1.519v-3.178h-.895v-.937h.895v-1.426h1.116zm-69.807-.43c2.218 0 3.519 1.36 3.519 3.707 0 2.382-1.291 3.752-3.519 3.752h-2.702v-7.458h2.702zm27.773-.365v7.825h-1.114v-7.825h1.114zm45.883 0v3.1h.087c.275-.63.872-1.008 1.721-1.008 1.203 0 1.945.76 1.945 2.1v3.632h-1.116v-3.36c0-.897-.42-1.355-1.207-1.355-.913 0-1.42.575-1.42 1.429v3.286h-1.115v-7.825h1.105zm-12.097 2.086c1.26 0 1.953.755 1.953 2.095v3.643h-1.113v-3.364c0-.905-.395-1.355-1.219-1.355-.823 0-1.347.549-1.347 1.426v3.293h-1.114v-5.628h1.071v.894h.084c.275-.625.835-1.004 1.685-1.004zm-49.47.11 1.011 4.296h.084l1.16-4.296h1.069l1.16 4.296h.088l1.007-4.296h1.113l-1.55 5.628h-1.155l-1.167-4.145h-.088l-1.162 4.145H59.93l-1.555-5.628h1.13zm10.841-.11c1.26 0 1.953.755 1.953 2.095v3.643h-1.113v-3.364c0-.905-.395-1.355-1.218-1.355-.824 0-1.348.549-1.348 1.426v3.293h-1.114v-5.628h1.072v.894h.084c.274-.625.834-1.004 1.684-1.004zm16.517 3.195-1.379.088c-.777.052-1.13.316-1.13.812 0 .506.442.8 1.047.8.84 0 1.462-.531 1.462-1.23v-.47zm15.117-2.207c-.968 0-1.513.714-1.513 1.934 0 1.229.545 1.937 1.513 1.937.965 0 1.514-.713 1.514-1.937 0-1.22-.549-1.934-1.514-1.934zm-22.58 0c-.967 0-1.512.714-1.512 1.934 0 1.229.545 1.937 1.513 1.937.965 0 1.514-.713 1.514-1.937 0-1.22-.549-1.934-1.514-1.934zm-24.49 0c-.967 0-1.512.714-1.512 1.934 0 1.229.545 1.937 1.513 1.937.965 0 1.514-.713 1.514-1.937 0-1.22-.549-1.934-1.514-1.934zm37.185.026c-.938 0-1.508.724-1.508 1.908 0 1.194.564 1.912 1.508 1.912.939 0 1.52-.73 1.52-1.907 0-1.174-.587-1.913-1.52-1.913zm-44.81-1.68h-1.41v5.35h1.41c1.565 0 2.468-.972 2.468-2.683 0-1.685-.918-2.667-2.467-2.667zm-18.06-2.16c.186 1.675-.48 3.326-1.452 4.538-1.015 1.194-2.637 2.108-4.22 1.99-.206-1.611.595-3.324 1.491-4.37 1.014-1.187 2.774-2.095 4.182-2.157zm99.638 3.773c-.824 0-1.399.58-1.462 1.458h2.851c-.025-.883-.564-1.458-1.389-1.458z" fill="#504C5C"/></svg>
